X:1
T:[ID 3-3b]
T:[ID 3-3b]
T:Bezeichnung standardisiert: Pursue the French [Sammelbezeichnung]; Musetto 2. In dieser Quelle auch: Tantz 17.; Holl\"andisch; In anderer Quelle: Pursue the French - J. Johnson Choice Collection Vol. 2 nach 1750 (Anm. S. Wascher); Dursue the French - Manuscrit Cinquantenaire 1779 (Anm. S. Wascher);
T:Urheber unbekannt Erstbeleg: nach 1750 (Datum in der schriftlichen Quelle) Datum in der hier transkribierten schriftlichen Quelle: 1767
C:Urheber unbekannt
C:Erstbeleg: nach 1750 (Datum in der schriftlichen Quelle)
C:Datum in der hier transkribierten schriftlichen Quelle: 1767
%%score 1 2
L:1/8
M:2/4
K:D
V:1 treble nm="Violino Primo"
V:2 treble nm="Violino Secondo"
V:1
 ff/a/ gg/b/ | aa a2 | gg/e/ ff/d/ | ee e2 | ff/a/ gg/b/ | aa a2 | ff/d/ ee/c/ | dd d2 :: %8
 aa/f/ gg/e/ | ff/d/ e2 | aa/f/ gg/e/ | ff/d/ e2 | ff/a/ gg/b/ | aa a2 | ff/d/ ee/c/ | dd d2 :| %16
V:2
 !fermata!dd/f/ ee/g/ | ff f2 | ee/c/ dd/F/ | AA A2 | dd/f/ ee/g/ | ff f2 | dd/F/ GG/E/ | FF F2 :: %8
 ff/d/ ee/c/ | dd/F/ A2 | ff/d/ ee/c/ | dd/F/ A2 | dd/f/ ee/g/ | ff f2 | dd/F/ GG/E/ | FF F2 :| %16

